X:30
T:Entre cinq ou six. [FJ30]
S:Festin joyeux.  Music page 15.
Z:transcribed by Eric Conrad, 2021.
N:NB The meter is given simply as "2"
N:NB In the MS, the G is the bottom line of the staff (lines: GBdfa)
N:NB MS has a four-dot repeat in the middle, with no marks at start or end.
N:NB Repeat marks were added at beginning and end.
N:NB The plus signs seem to indicate some kind of roll or trill.
M:4/4
L:1/4
% K:C clef=treble1 % Staff marked GBdfa as in MS
K:C
|: e/d/e/f/ | ee/f/ gg | ec e/d/e/f/ | ee/f/ gg | "^+"e2 ::
e2 | c2 fe | dB cc | e2 c2 | fe dB | c2 :|
